app/images/icon/design-item-2.svg

<svg width="56" height="56" viewBox="0 0 56 56" fill="none" xmlns="http://www.w3.org/2000/svg">
<rect width="56" height="56" fill="#0037A1"/>
<path d="M26.42 35.42C25 37.4 23.01 38.39 20.45 38.39C17.89 38.39 15.9 37.4 14.48 35.42C13.06 33.44 12.35 30.8 12.35 27.5C12.35 24.2 13.06 21.56 14.48 19.58C15.9 17.6 17.89 16.61 20.45 16.61C23.01 16.61 25 17.6 26.42 19.58C27.84 21.56 28.55 24.2 28.55 27.5C28.55 30.8 27.84 33.44 26.42 35.42ZM16.52 33.53C17.44 34.95 18.75 35.66 20.45 35.66C22.15 35.66 23.46 34.95 24.38 33.53C25.32 32.11 25.79 30.1 25.79 27.5C25.79 24.9 25.32 22.89 24.38 21.47C23.46 20.03 22.15 19.31 20.45 19.31C18.75 19.31 17.44 20.02 16.52 21.44C15.6 22.86 15.14 24.88 15.14 27.5C15.14 30.1 15.6 32.11 16.52 33.53ZM30.5956 38V35.72L38.0056 28.16C39.9856 26.18 40.9756 24.48 40.9756 23.06C40.9756 21.88 40.6156 20.96 39.8956 20.3C39.1756 19.64 38.2956 19.31 37.2556 19.31C35.2756 19.31 33.8356 20.25 32.9356 22.13L30.5956 20.75C31.2556 19.39 32.1656 18.36 33.3256 17.66C34.5056 16.96 35.8056 16.61 37.2256 16.61C38.9856 16.61 40.5156 17.19 41.8156 18.35C43.1156 19.51 43.7656 21.07 43.7656 23.03C43.7656 25.15 42.5156 27.46 40.0156 29.96L34.6456 35.3H44.1556V38H30.5956Z" fill="white"/>
</svg>

<svg width="56" height="56" fill="none" xmlns="http://www.w3.org/2000/svg">
    <path fill="#0037A1" d="M0 0h56v56H0z"/>
    <path d="M26.42 35.42c-1.42 1.98-3.41 2.97-5.97 2.97-2.56 0-4.55-.99-5.97-2.97-1.42-1.98-2.13-4.62-2.13-7.92s.71-5.94 2.13-7.92c1.42-1.98 3.41-2.97 5.97-2.97 2.56 0 4.55.99 5.97 2.97 1.42 1.98 2.13 4.62 2.13 7.92s-.71 5.94-2.13 7.92Zm-9.9-1.89c.92 1.42 2.23 2.13 3.93 2.13 1.7 0 3.01-.71 3.93-2.13.94-1.42 1.41-3.43 1.41-6.03s-.47-4.61-1.41-6.03c-.92-1.44-2.23-2.16-3.93-2.16-1.7 0-3.01.71-3.93 2.13-.92 1.42-1.38 3.44-1.38 6.06 0 2.6.46 4.61 1.38 6.03ZM30.596 38v-2.28l7.41-7.56c1.98-1.98 2.97-3.68 2.97-5.1 0-1.18-.36-2.1-1.08-2.76-.72-.66-1.6-.99-2.64-.99-1.98 0-3.42.94-4.32 2.82l-2.34-1.38c.66-1.36 1.57-2.39 2.73-3.09 1.18-.7 2.48-1.05 3.9-1.05 1.76 0 3.29.58 4.59 1.74 1.3 1.16 1.95 2.72 1.95 4.68 0 2.12-1.25 4.43-3.75 6.93l-5.37 5.34h9.51V38h-13.56Z" fill="#fff"/>
</svg>
